!!!ONB: MCCC : IWM0418_02 : Extracted Monophonic Melody
!!!COM: Mozart, Wolfgang Amadeus
!!!OPR: Piano Sonata No.18
!!!OMV: 2
!!!SCT: K.576
!!!ODT: 1789///
**kern
*thru
*staff1
*clefG2
*k[f#c#g#]
*A:
*M3/4
*MM60
=1
8.cc#
64dd
64cc#
64b
64cc#
8ee
8dd
8b
8g#
=2
8.a
32cc#
32a
2ee
=3
16ee
16aa
16gg#
16gg
16ee#
16ff#
16ee
16dd
16cc#
16b
16dd
16ff#
=4
8.a
32b
32a
16g#
16e
16f#
16g#
16a
16a#
16b
16b#
=5
8.cc#
64dd
64cc#
64b
64cc#
8ee
8dd
8b
8g#
=6
8.a
32cc#
32a
[4ee#
16ee#]
16ff#
16gg#
16aa
=7
8aa[
32aa]
32bb
32ccc#
32aa
16ee
16aa
16cc#
16ff#
16ee
16dd#
16dd
16b
=8
4b
4a
4r
=9
[8dd
32dd]
32ff#
32ee
32ff#
32dd
32ee
32cc#
32dd
32b
32cc#
32a
32b
8g#
8r
=10
8ee[
32ee]
32dd#
32ff#
32ee
32aa
32gg#
32bb
32aa
32ccc#
32bb
32ddd
32ccc#
8eee
8r
=11
8aa[
32aa]
32ccc#
32bb
32ccc#
32aa
32bb
32gg#
32aa
32ff#
32gg#
32ee
32ff#
32dd#
32ee
32ff#
32gg#
32bb
32aa
32ff#
32dd#
=12
4ff#[
16ff#]
16dd#
16ee
16ee#
16gg#
16ff#
16ee
16dd
=13
8.cc#
64dd
64cc#
64b
64cc#
8ee
8dd
8b
8g#
=14
8.a
32cc#
32a
2gg
=15
32ee#
32ff#
32gg#
32ff#
32ee
32dd
32cc#
32b
16a
16cc#
8.ee
16e
16f#
16g#
=16
4b
8a
8a#
8b
8b#
=17
4cc#
16a
16ff#
16aa
16ee#
16ff#
16b#
16dd
16cc#
=18
4cc#
16g#
16gg#
16bb
16ee#
16gg#
16b#
16dd
16cc#
=19
16r
16aa
16r
16gg#
16r
16ee#
16ff#
16gg#
16bb
16aa
16gg#
16ff#[
=20
16ff#]
16ee#
16gg#
16b#
8cc#
8r
4r
=21
4cc#
16a
16ff#
16aa
16ee#
16ff#
16b#
16dd
16cc#
=22
4cc#
16g
16gg
16bb
16ee
16gg
16b
16dd
16cc#
=23
16r
16dd
16r
16dd#
16r
16ee
16r
16ff
16r
16ff#
16aa
16cc#
=24
32dd
32ee
32dd
32cc#
32dd
32ee
32ff#
32gg
32aa
32bb
32aa
32gg#
32aa
32bb
32ccc#
32ddd
32ccc#
32eee
32ccc#
32aa
32gg
32aa
32gg
32ee
=25
32dd
32ee
32dd
32cc#
32dd
32ee
32ff#
32gg
32aa
32bb
32aa
32gg#
32aa
32bb
32ccc#
32ddd
32ccc#
32eee
32ccc#
32aa
32gg
32aa
32gg
32ee
=26
4dd
32d
32c#
32e
32d
32f#
32e
32g
32f#
32a
32g#
32cc
32b
32a
32g
32f#
32e
=27
32r
32b
32cc#
32dd#
32ee
32ff#
32gg#
32aa#
32bb
32aa
32ccc
32bb
32aa
32gg
32ff#
32ee
32dd#
32ee
32ff#
32ee
32dd#
32cc
32b
32a
=28
4g
32e
32d#
32f#
32e
32g
32f#
32a
32g
32b
32a#
32dd
32cc#
32b
32a
32g#
32f#
=29
32r
32cc#
32dd#
32ee#
32ff#
32gg#
32aa#
32bb
32ccc#
32bb
32ddd
32ccc#
32bb
32aa
32gg#
32ff#
32ee#
32ff#
32gg#
32ff#
32ee#
32dd
32cc#
32b
=30
32a
32f#
32g#
32a
32b
32cc#
32dd#
32ee#
32ff#
32gg#
32ff#
32ee#
32ff#
32gg#
32ff#
32ee#
32ff#
32gg#
32aa
32gg#
32bb
32aa
32gg#
32ff#
=31
32ee#
32ff#
32gg#
32ff#
32ee#
32dd#
32cc#
32b#
32cc#
32b
32dd
32cc#
32b
32a
32g#
32f#
4r
=32
4cc#
16a
16ff#
16aa
16ee#
16ff#
16b#
16dd
16cc#
=33
4cc#
16g#
16gg#
16bb
16ee#
16gg#
16b#
16dd
16cc#
=34
16r
16aa
16r
16gg#
16r
16ee#
16ff#
16gg#
16bb
16aa
16gg#
16ff#[
=35
16ff#]
16ee#
16gg#
16b
8cc#
8r
4r
=36
4cc#
16a
16ff#
16aa
16ee#
16ff#
16b#
16dd
16cc#
=37
4cc#
16g
16gg
16aa#
16ee
16gg
16cc#
16ee
16a#
=38
16r
16b
16r
16b#
16r
16cc#
16ff#
16a
16cc#
16f#
16b
16e#
=39
16f#
32g#
32a
32b
32cc#
32dd#
32ee#
32ff#
32gg#
32aa
32bb
32ccc#
32aa
32gg#
32ff#
32ee#
32gg#
32ee#
32cc#
32b
32cc#
32b
32g#
=40
16f#
32g#
32a
32b
32cc#
32dd#
32ee#
32ff#
32gg#
32aa
32bb
32ccc#
32aa
32gg#
32ff#
32ee#
32gg#
32ee#
32cc#
32b
32cc#
32b
32g#
=41
4f#
32r
32f#
32g#
32a
32b
32cc#
32dd#
32ee#
32ff#
32gg#
32aa
32bb
32ccc#
32aa
32ff#
32cc#
=42
4dd
32r
32a
32b
32cc#
32dd
32ee
32ff
32gg
32aa
32dd
32ff
32aa
32ddd
32ccc
32bb
32aa
=43
32aa
32gg#
32bb
32aa#
32ccc#
32bb
32aa
32gg#
32ff#
32ee
32ff#
32ee#
32gg#
32ff#
32ee
32dd
32cc#
32b
32dd
32cc#
32ee
32dd
32cc#
32b#
=44
8cc#
32dd
32cc#
32b
32cc#
8ee
8dd
8b
8g#
=45
8.a
32cc#
32a
2ee
=46
16ee
16aa
16gg#
16gg
16ee#
16ff#
16ee
16dd
16cc#
16b
16dd
16ff#
=47
8.a
32b
32a
16g#
16e
16f#
16g#
16a
16a#
16b
16b#
=48
8cc#
32dd
32cc#
32b
32cc#
8ee
8dd
8b
8g#
=49
8.a
32cc#
32a
[4ee#
16ee#]
16ff#
16gg#
16aa
=50
8aa[
32aa]
32bb
32ccc#
32aa
16ee
16aa
16cc#
16ff#
16ee
16dd#
16dd
16b
=51
4b
4a
4r
=52
[8dd
32dd]
32ff#
32ee
32ff#
32dd
32ee
32cc#
32dd
32b
32cc#
32a
32b
8g#
8r
=53
8ee[
32ee]
32dd#
32ff#
32ee
32aa
32gg#
32bb
32aa
32ccc#
32bb
32ddd
32ccc#
8eee
8r
=54
8aa[
32aa]
32ccc#
32aa
32ccc#
32aa
32bb
32gg#
32aa
32ff#
32gg#
32ee
32ff#
32dd#
32ee
32ff#
32gg#
32bb
32aa
32ff#
32dd#
=55
4ff#[
16ff#]
16dd#
16ee
16ee#
16gg#
16ff#
16ee
16dd
=56
8cc#
32dd
32cc#
32b
32cc#
8ee
8dd
8b
8g#
=57
8.a
32cc#
32a
2gg
=58
32ee#
32ff#
32gg#
32ff#
32ee
32dd
32cc#
32b
16a
16cc#
8.ee
16e
16f#
16g#
=59
4a
16r
16aa
16ccc#
16ee
16ee#
16ff#
16aa
16ff#
=60
8dd#
8ee
16r
16aa
16ccc#
16ee
16ee#
16ff#
16aa
16ff#
=61
32dd#
32ee
32ff#
32ee
32dd
32cc#
32b
32a
8cc#
8r
16.b
32a
16.b
32cc#
=62
4a
16r
16aa
16ccc#
16ee
16ee#
16ff#
16aa
16ff#
=63
8dd#
8ee
16r
16aa
16ccc#
16ee
16ee#
16ff#
16aa
16ff#
=64
32dd#
32ee
32ff#
32ee
32dd
32cc#
32b
32a
8cc#
8r
16.b
32a
16.b
32cc#
=65
32a
32e
32f#
32g#
32a
32b
32cc#
32dd
32ee
32ff#
32gg#
32aa
32aa#
32bb
32bb#
32ccc#
8ddd
8gg#
=66
32aa
32ccc#
32aa
32gg#
32ff#
32ee
32dd
32cc#
32b
32a
32g#
32g
32f#
32f
32e
32d#
8d
8G#
=67
4B
8A
8r
4r
==
*-
